apps/mobile/assets/icons/phosphor/hard-drive.svg

<svg
  height="32"
  viewBox="0 0 256 256"
  width="32"
  xmlns="http://www.w3.org/2000/svg"
>
  <path
    d="m224 64h-192a16 16 0 0 0 -16 16v96a16 16 0 0 0 16 16h192a16 16 0 0 0 16-16v-96a16 16 0 0 0 -16-16zm0 112h-192v-96h192zm-24-48a12 12 0 1 1 -12-12 12 12 0 0 1 12 12z"
  />
</svg>

<svg xmlns="http://www.w3.org/2000/svg" width="32" height="32" fill="#000000" viewBox="0 0 256 256"><path d="M224,64H32A16,16,0,0,0,16,80v96a16,16,0,0,0,16,16H224a16,16,0,0,0,16-16V80A16,16,0,0,0,224,64Zm0,112H32V80H224v96Zm-24-48a12,12,0,1,1-12-12A12,12,0,0,1,200,128Z"></path></svg>
